build/flags/Guernsey.svg

<svg xmlns="http://www.w3.org/2000/svg" fill="none" viewBox="0 0 28 28" focusable="false"><defs><filter id="Guernsey_svg__a"><feColorMatrix values="0 0 0 0 1 0 0 0 0 1 0 0 0 0 1 0 0 0 1 0"/></filter></defs><mask id="Guernsey_svg__b" width="28" height="20" x="0" y="4" maskUnits="userSpaceOnUse"><g filter="url(#Guernsey_svg__a)"><rect width="28" height="20" y="4" fill="#FFF" rx="3"/><rect width="27.5" height="19.5" x=".25" y="4.25" stroke="#F5F5F5" stroke-width=".5" rx="2.75"/></g></mask><path fill="none" d="M0 0H28V28H0z"/><rect width="28" height="20" y="4" fill="#FFF" rx="3"/><rect width="27.5" height="19.5" x=".25" y="4.25" stroke="#D6D8DD" stroke-width=".5" rx="2.75"/><g mask="url(#Guernsey_svg__b)"><path fill="#E8112D" d="M10.667 4H17.334V24H10.667z"/><path d="M10.667 4H17.334V24H10.667z"/><path fill="#E8112D" d="M0 10.667H28V17.334H0z"/><path d="M0 10.667H28V17.334H0z"/><path fill="#F9DD16" d="M13.333 6.667H14.666V21.334H13.333z"/><path d="M13.333 6.667H14.666V21.334H13.333z"/><path fill="#F9DD16" fill-rule="evenodd" d="M14 20L15.3334 21.3333L12.6667 21.3333L14 20Z"/><path d="M15.3334 21.3333L12.6667 21.3333L14 20L15.3334 21.3333Z"/><path fill="#F9DD16" d="M6.667 13.333H21.334V14.666H6.667z"/><path d="M6.667 13.333H21.334V14.666H6.667z"/><path fill="#F9DD16" fill-rule="evenodd" d="M1.33333 0L2.66667 1.33333L0 1.33333L1.33333 0Z" transform="matrix(1 0 0 -1 12.667 8)"/><path d="M2.66667 1.33333L0 1.33333L1.33333 0L2.66667 1.33333Z" transform="matrix(1 0 0 -1 12.667 8)"/><path fill="#F9DD16" fill-rule="evenodd" d="M1.33333 0L2.66667 1.33333L0 1.33333L1.33333 0Z" transform="matrix(0 -1 -1 0 8 15.333)"/><path d="M2.66667 1.33333L0 1.33333L1.33333 0L2.66667 1.33333Z" transform="matrix(0 -1 -1 0 8 15.333)"/><path fill="#F9DD16" fill-rule="evenodd" d="M1.33333 0L2.66667 1.33333L0 1.33333L1.33333 0Z" transform="rotate(-90 17.667 -2.333)"/><path d="M2.66667 1.33333L0 1.33333L1.33333 0L2.66667 1.33333Z" transform="rotate(-90 17.667 -2.333)"/></g></svg>

<svg xmlns="http://www.w3.org/2000/svg" fill="none" viewBox="0 0 28 28" focusable="false"><path fill="none" d="M0 0h28v28H0z"/><rect width="28" height="20" y="4" fill="#FFF" rx="3"/><rect width="27.5" height="19.5" x=".25" y="4.25" stroke="#D6D8DD" stroke-width=".5" rx="3"/><mask id="Guernsey_svg__a" width="28" height="20" x="0" y="4" mask-type="alpha" maskUnits="userSpaceOnUse"><rect width="28" height="20" y="4" fill="#FFF" rx="3"/><rect width="27.5" height="19.5" x=".25" y="4.25" stroke="#F5F5F5" stroke-width=".5" rx="3"/></mask><g mask="url(#Guernsey_svg__a)"><path fill="#E8112D" d="M10.667 4h6.667v20h-6.667z"/><path d="M10.667 4h6.667v20h-6.667z"/></g><g mask="url(#Guernsey_svg__a)"><path fill="#E8112D" d="M0 10.667h28v6.667H0z"/><path d="M0 10.667h28v6.667H0z"/></g><g mask="url(#Guernsey_svg__a)"><path fill="#F9DD16" d="M13.333 6.667h1.333v14.667h-1.333z"/><path d="M13.333 6.667h1.333v14.667h-1.333z"/><path fill="#F9DD16" fill-rule="evenodd" d="m14 20 1.33 1.33h-2.67z"/><path d="M15.33 21.33h-2.67L14 20z"/><path fill="#F9DD16" d="M6.667 13.333h14.667v1.333H6.667z"/><path d="M6.667 13.333h14.667v1.333H6.667z"/><path fill="#F9DD16" fill-rule="evenodd" d="m14 8 1.33-1.34h-2.67z"/><path d="M15.33 6.66h-2.67L14 8z"/><path fill="#F9DD16" fill-rule="evenodd" d="m8 14-1.34-1.34v2.67z"/><path d="M6.66 12.66v2.67L8 14z"/><path fill="#F9DD16" fill-rule="evenodd" d="m20 14 1.33-1.34v2.67z"/><path d="M21.33 12.66v2.67L20 14z"/></g></svg>
